X: 1
T: Calum's Jig
C: James Gray
R: jig
B: Alex & James Gray "Tweeddale Collection" v.49 #4,7
N: Tune for Machine Without Wheels
Z: 2017 John Chambers <jc:trillian.mit.edu>
M: C
L: 1/8
K: Dm
B, |\
"Dm"A,AF DFA | "Gm"BAG "Dm"FAd | "C"edc Gcc | Ecc GEC |\
"Dm"A,AF DFA | "Dm"def "C"e2c | "Gm"BAG "Dm"Add | "A"AGE "Dm"D2 :|
E |\
"Dm"FDd AFd | Add fed | "C"ECc GEc | Gcc edc |\
"Dm"FDd AFd | Ade f2g | "Dm"aAd "Edim"a2g | "Dm/A"fAd "A"e^cA |
"Dm"FDd AFd | Add fed | "C"ECc GEc | Gcc edc |\
"Gm"BGg "Dm/F"AFf | "C/E"GEe "Dm"FDd | "Gm"BAG "Dm/A"Add | "A"AGE "Dm"D2 |]
